!!!COM: Vivaldi, Antonio
!!!CDT: 1678/03/04/-1741/07/27/
!!!OTL: Concerto in E Minor, Op. 6, No. 5
!!!OMV: No. 1
!!!OMD: Allegro
**kern	**kern	**kern	**kern	**kern	**kern	**kern	**kern
*staff8	*staff7	*staff6	*staff5	*staff4	*staff3	*staff2	*staff1
*Icemba	*Icemba	*Icbass	*Icello	*Iviola	*Ivioln	*Ivioln	*Ivioln
*clefF4	*clefG2	*clefF4	*clefF4	*clefC3	*clefG2	*clefG2	*clefG2
*k[f#]	*k[f#]	*k[f#]	*k[f#]	*k[f#]	*k[f#]	*k[f#]	*k[f#]
*met(C)	*met(C)	*met(C)	*met(C)	*met(C)	*met(C)	*met(C)	*met(C)
*M4/4	*M4/4	*M4/4	*M4/4	*M4/4	*M4/4	*M4/4	*M4/4
*MM120	*MM120	*MM120	*MM120	*MM120	*MM120	*MM120	*MM120
=1-	=1-	=1-	=1-	=1-	=1-	=1-	=1-
4r	2r	4r	4r	4r	8r	8r	8r
.	.	.	.	.	8b\	8b\	8b\
8r	.	8r	8r	8r	[4ee\	[4ee\	[4ee\
8E\	.	8E\	8E\	8g\	.	.	.
4B\	2r	4B\	4B\	4f#\	8ee\L]	8ee\L]	8ee\L]
.	.	.	.	.	8ff#\	8ff#\	8ff#\
4BB/	.	4BB/	4BB/	4d#\	8gg\	8gg\	8gg\
.	.	.	.	.	8ff#\J	8ff#\J	8ff#\J
=2	=2	=2	=2	=2	=2	=2	=2
4E\	2r	4E\	4E\	4B/	8ee/L	8ee/L	8ee/L
.	.	.	.	.	8B/J	8A/J	8B/J
8r	.	8r	8r	8r	[4e/	[4e/	[4e/
8E\	.	8E\	8E\	8G/	.	.	.
4B\	2r	4B\	4B\	4F#/	8e/L]	8e/L]	8e/L]
.	.	.	.	.	8f#/	8f#/	8f#/
4BB/	.	4BB/	4BB/	4d#\	8g/	8g/	8g/
.	.	.	.	.	8f#/J	8f#/J	8f#/J
=3	=3	=3	=3	=3	=3	=3	=3
4E\	2r	4E\	4E\	4B/	8e/L	8e/L	8e/L
.	.	.	.	.	8b/J	8b/J	8b/J
8r	.	8r	8r	8r	[4ee\	[4ee\	[4ee\
8E\	.	8E\	8E\	8g\	.	.	.
8B\L	2r	8B\L	8B\L	4f#\	8ee\L]	8ee\L]	8ee\L]
8A\	.	8A\	8A\	.	8ff#\	8ff#\	8ff#\
8G\	.	8G\	8G\	8e\L	8gg\	8gg\	8gg\
8F#\J	.	8F#\J	8F#\J	8f#\J	8aa\J	8aa\J	8aa\J
=4	=4	=4	=4	=4	=4	=4	=4
4E\	2r	4E\	4E\	4g\	4bb\	4bb\	4bb\
4F#\	.	4F#\	4F#\	4a\	4dd#\	4dd#\	4dd#\
4G\	2r	4G\	4G\	4b\	4ee\	4ee\	4ee\
4D#\	.	4D#\	4D#\	4f#\	4cc\	4cc\	4cc\
=5	=5	=5	=5	=5	=5	=5	=5
8E\L	2r	8E\L	8E\L	8g\L	2b\	2b\	2b\
8F#\	.	8F#\	8F#\	8a\	.	.	.
8G\	.	8G\	8G\	8b\	.	.	.
8A\J	.	8A\J	8A\J	8cc\J	.	.	.
4BB/	2r	4BB/	4BB/	4d#\	8r	8r	8r
.	.	.	.	.	8bb\	8bb\	8bb\
8r	.	8r	8r	8r	[4gg#\	[4gg#\	[4gg#\
8e\	.	8e\	8e\	8b\	.	.	.
=6	=6	=6	=6	=6	=6	=6	=6
4.E\	2r	4.E\	4.E\	4.b\	8gg#\L]	8gg#\L]	8gg#\L]
.	.	.	.	.	8dd\	8dd\	8dd\
.	.	.	.	.	8ee\	8ee\	8ee\
8G#\	.	8G#\	8G#\	8g#\	8b\J	8b\J	8b\J
4A\	2r	4A\	4A\	4e\	8cc#\L	8cc#\L	8cc#\L
.	.	.	.	.	8aa\J	8aa\J	8aa\J
8r	.	8r	8r	8r	[4ff#\	[4ff#\	[4ff#\
8d\	.	8d\	8d\	8f#\	.	.	.
=7	=7	=7	=7	=7	=7	=7	=7
4.D\	2r	4.D\	4.D\	4.a\	8ff#\L]	8ff#\L]	8ff#\L]
.	.	.	.	.	8ccn\	8ccn\	8ccn\
.	.	.	.	.	8dd\	8dd\	8dd\
8F#\	.	8F#\	8F#\	8f#\	8a\J	8a\J	8a\J
4G\	2r	4G\	4G\	4d\	8b\L	8b\L	8b\L
.	.	.	.	.	8gg\J	8gg\J	8gg\J
8r	.	8r	8r	8r	[4ee\	[4ee\	[4ee\
8c\	.	8c\	8c\	8e\	.	.	.
=8	=8	=8	=8	=8	=8	=8	=8
4.C/	2r	4.C/	4.C/	4.g\	8ee\L]	8ee\L]	8ee\L]
.	.	.	.	.	8b\	8b\	8b\
.	.	.	.	.	8cc\	8cc\	8cc\
8E\	.	8E\	8E\	8e\	8g\J	8g\J	8g\J
4F#\	2r	4F#\	4F#\	4c\	8a\L	8a\L	8a\L
.	.	.	.	.	8ff#\J	8ff#\J	8ff#\J
8r	.	8r	8r	8r	[4dd#\	[4dd#\	[4dd#\
8B\	.	8B\	8B\	8d#\	.	.	.
=9	=9	=9	=9	=9	=9	=9	=9
4.BB/	2r	4.BB/	4.BB/	4.f#\	8dd#/L]	8dd#/L]	8dd#/L]
.	.	.	.	.	8a/	8a/	8a/
.	.	.	.	.	8b/	8b/	8b/
8D#\	.	8D#\	8D#\	8d#\	8f#/J	8f#/J	8f#/J
4.E\	2r	4.E\	4.E\	4B/	8g/L	8g/L	8g/L
.	.	.	.	.	8b/J	8b/J	8b/J
.	.	.	.	8r	[4ee\	[4ee\	[4ee\
8E\	.	8E\	8E\	8g\	.	.	.
=10	=10	=10	=10	=10	=10	=10	=10
4G\	2r	4G\	4G\	4b\	8ee\L]	8ee\L]	8ee\L]
.	.	.	.	.	8ff#\	8ff#\	8ff#\
4E\	.	4E\	4E\	4g\	8gg\	8gg\	8gg\
.	.	.	.	.	8ee\J	8ee\J	(8ee\J
4.A\	2r	4.A\	4.A\	4.cc\	8ffn\L	8ffn\L	8ffn\L
.	.	.	.	.	8cc\J	8cc\J	8cc\J)
.	.	.	.	.	[4ff\	[4ff\	[4ff\
8A\	.	8A\	8A\	8cc\	.	.	.
=11	=11	=11	=11	=11	=11	=11	=11
4.c\	2r	4.c\	4.c'\	4.a\	8ff\L]	8ff\L]	8ff\L]
.	.	.	.	.	8gg\	8gg\	8gg\
.	.	.	.	.	8aa\	8aa\	8aa\
8B\	.	8B\	8B\	8b\	8gg\J	8gg\J	8gg\J
4.A\	2r	4.A\	4.A\	4.cc\	8ffn\L	8ffn\L	8ffn\L
.	.	.	.	.	8cc\J	8cc\J	8cc\J
.	.	.	.	.	[4ff\	[4ff\	[4ff\
8A\	.	8A\	8A\	8cc\	.	.	.
=12	=12	=12	=12	=12	=12	=12	=12
8A\L	2r	8A\L	8A\L	8cc\L	8ff\L]	8ff\L]	8ff\L]
8G\	.	8G\	8G\	8b\	8gg\	8gg\	8gg\
8Fn\	.	8Fn\	8Fn\	8a\	8aa\	8aa\	8aa\
8E\J	.	8E\J	8E\J	8g\J	8bb\J	8bb\J	8bb\J
4BB/	2r	4BB/	4BB/	4f#\	8dd#\L	8dd#\L	8dd#\L
.	.	.	.	.	8b\J	8b\J	8b\J
8r	.	8r	8r	8r	[4bb\	[4bb\	[4bb\
8B\	.	8B\	8B\	8d#\	.	.	.
=13	=13	=13	=13	=13	=13	=13	=13
4.c#\	2r	4.c#\	4.c#\	4.e\	8bb\L]	8bb\L]	8bb\L]
.	.	.	.	.	8b\J	8b\J	8b\J
.	.	.	.	.	[4aa\	[4aa\	[4aa\
8d#\	.	8d#\	8d#\	8f#\	.	.	.
4.e\	2r	4.e\	4.e\	4.b\	(8aa\L]	8aa\L]	8aa\L]
.	.	.	.	.	8b\J)	8b\J	8b\J
.	.	.	.	.	4gg#\	4gg#\	4gg#\
8dn\	.	8dn\	8dn\	8b\	.	.	.
=14	=14	=14	=14	=14	=14	=14	=14
4c#\	2r	4c#\	4c#\	8e\L	8aa\L	8aa\L	8aa\L
.	.	.	.	8a\	8ee\	8ee\	8ee\
4c#\	.	4c#\	4c#\	8d#\	8ff#\	8ff#\	8ff#\
.	.	.	.	8f#\J	8aa\J	8aa\J	8aa\J
4c#\	2r	4c#\	4c#\	8e\L	8aa\L	8aa\L	8aa\L
.	.	.	.	8a\	8ee\	8ee\	8ee\
4d#\	.	4d#\	4d#\	8d#\	8ff#\	8ff#\	8ff#\
.	.	.	.	8f#\J	8aa\J	8aa\J	8aa\J
=15	=15	=15	=15	=15	=15	=15	=15
4E\	2r	4E\	4E\	4b\	8gg\L	8gg\L	8gg\L
.	.	.	.	.	8b\J	8b\J	8b\J
8r	.	8r	8r	8r	[4ee\	[4ee\	[4ee\
8GG/	.	8GG/	8GG/	8B/	.	.	.
4AA/	2r	4AA/	4AA/	4c\	8ee/L]	8ee/L]	8ee/L]
.	.	.	.	.	8f#/	8f#/	8f#/
4BB/	.	4BB/	4BB/	8B\L	8B/	8B/	8B/
.	.	.	.	8f#\J	8dd#/J	8dd#/J	8dd#/J
=16	=16	=16	=16	=16	=16	=16	=16
4E\	2r	4E\	4E\	4g\	4ee\	4ee\	16ee\LL
.	.	.	.	.	.	.	16ff#\
.	.	.	.	.	.	.	16gg\
.	.	.	.	.	.	.	16ff#\JJ
4r	.	4r	4r	4r	4r	4r	16ee\LL
.	.	.	.	.	.	.	16gg\
.	.	.	.	.	.	.	16ff#\
.	.	.	.	.	.	.	16ee\JJ
8BB/L	2r	2r	8BB/L	2r	2r	2r	16dd#\LL
.	.	.	.	.	.	.	16b\
8D#/	.	.	8D#/	.	.	.	16ff#\
.	.	.	.	.	.	.	16b\JJ
8BB/	.	.	8BB/	.	.	.	16bb\LL
.	.	.	.	.	.	.	16b\
8D#/J	.	.	8D#/J	.	.	.	16ff#\
.	.	.	.	.	.	.	16b\JJ
=17	=17	=17	=17	=17	=17	=17	=17
4E\	2r	1r	4E\	1r	1r	1r	16ee\LL
.	.	.	.	.	.	.	16ff#\
.	.	.	.	.	.	.	16gg\
.	.	.	.	.	.	.	16ff#\JJ
4r	.	.	4r	.	.	.	16ee\LL
.	.	.	.	.	.	.	16gg\
.	.	.	.	.	.	.	16ff#\
.	.	.	.	.	.	.	16ee\JJ
8BB/L	2r	.	8BB/L	.	.	.	16dd#\LL
.	.	.	.	.	.	.	16b\
8D#/	.	.	8D#/	.	.	.	16ff#\
.	.	.	.	.	.	.	16b\JJ
8BB/	.	.	8BB/	.	.	.	16bb\LL
.	.	.	.	.	.	.	16b\
8D#/J	.	.	8D#/J	.	.	.	16ff#\
.	.	.	.	.	.	.	16b\JJ
=18	=18	=18	=18	=18	=18	=18	=18
4E\	2r	1r	4E\	1r	1r	1r	16ee\LL
.	.	.	.	.	.	.	16ff#\
.	.	.	.	.	.	.	16gg\
.	.	.	.	.	.	.	16ff#\JJ
4r	.	.	4r	.	.	.	16ee\LL
.	.	.	.	.	.	.	16gg\
.	.	.	.	.	.	.	16ff#\
.	.	.	.	.	.	.	16ee\JJ
8B\L	2r	.	8B\L	.	.	.	16dd#\LL
.	.	.	.	.	.	.	16cc#\J
8d#\	.	.	8d#\	.	.	.	8b\J
8B\	.	.	8B\	.	.	.	4r
8A\J	.	.	8A\J	.	.	.	.
=19	=19	=19	=19	=19	=19	=19	=19
4G#\	2r	1r	4G#\	1r	1r	1r	16bb\LL
.	.	.	.	.	.	.	16cccn\
.	.	.	.	.	.	.	16dddn\
.	.	.	.	.	.	.	16ccc\JJ
4r	.	.	4r	.	.	.	16bb\LL
.	.	.	.	.	.	.	16ddd\
.	.	.	.	.	.	.	16ccc\
.	.	.	.	.	.	.	16bb\JJ
8A\L	2r	.	8A\L	.	.	.	16ccc\LL
.	.	.	.	.	.	.	16ee\
8c\	.	.	8c\	.	.	.	16eee\
.	.	.	.	.	.	.	16ee\JJ
8A\	.	.	8A\	.	.	.	16ccc\LL
.	.	.	.	.	.	.	16ee\
8Gn\J	.	.	8Gn\J	.	.	.	16eee\
.	.	.	.	.	.	.	16ee\JJ
=20	=20	=20	=20	=20	=20	=20	=20
4F#\	2r	1r	4F#\	1r	1r	1r	16aa\LL
.	.	.	.	.	.	.	16bb\
.	.	.	.	.	.	.	16ccc\
.	.	.	.	.	.	.	16bb\JJ
4r	.	.	4r	.	.	.	16aa\LL
.	.	.	.	.	.	.	16ccc\
.	.	.	.	.	.	.	16bb\
.	.	.	.	.	.	.	16aa\JJ
8G\L	2r	.	8G\L	.	.	.	16bb\LL
.	.	.	.	.	.	.	16dd\
8B\	.	.	8B\	.	.	.	16ddd\
.	.	.	.	.	.	.	16dd\JJ
8G\	.	.	8G\	.	.	.	16bb\LL
.	.	.	.	.	.	.	16dd\
8F#\J	.	.	8F#\J	.	.	.	16ddd\
.	.	.	.	.	.	.	16dd\JJ
=21	=21	=21	=21	=21	=21	=21	=21
4E\	2r	1r	4E\	1r	1r	1r	16gg\LL
.	.	.	.	.	.	.	16aa\
.	.	.	.	.	.	.	16bb\
.	.	.	.	.	.	.	16aa\JJ
4r	.	.	4r	.	.	.	16gg\LL
.	.	.	.	.	.	.	16bb\
.	.	.	.	.	.	.	16aa\
.	.	.	.	.	.	.	16gg\JJ
8F#\L	2r	.	8F#\L	.	.	.	16aa\LL
.	.	.	.	.	.	.	16cc\
8A\	.	.	8A\	.	.	.	16ccc\
.	.	.	.	.	.	.	16cc\JJ
8F#\	.	.	8F#\	.	.	.	16aa\LL
.	.	.	.	.	.	.	16cc\
8E\J	.	.	8E\J	.	.	.	16ccc\
.	.	.	.	.	.	.	16cc\JJ
=22	=22	=22	=22	=22	=22	=22	=22
4D#\	2r	1r	4D#\	1r	1r	1r	16ff#\LL
.	.	.	.	.	.	.	16gg\
.	.	.	.	.	.	.	16aa\
.	.	.	.	.	.	.	16gg\JJ
4r	.	.	4r	.	.	.	16ff#\LL
.	.	.	.	.	.	.	16aa\
.	.	.	.	.	.	.	16gg\
.	.	.	.	.	.	.	16ff#\JJ
8E/L	2r	.	8E/L	.	.	.	16gg\LL
.	.	.	.	.	.	.	16b\
8BB/	.	.	8BB/	.	.	.	16bb\
.	.	.	.	.	.	.	16b\JJ
8E/	.	.	8E/	.	.	.	16gg\LL
.	.	.	.	.	.	.	16b\
8BB/J	.	.	8BB/J	.	.	.	16bb\
.	.	.	.	.	.	.	16b\JJ
=23	=23	=23	=23	=23	=23	=23	=23
8D#/L	2r	1r	8D#/L	1r	1r	1r	16ff#\LL
.	.	.	.	.	.	.	16b\
8BB/	.	.	8BB/	.	.	.	16bb\
.	.	.	.	.	.	.	16b\JJ
8D#/	.	.	8D#/	.	.	.	16ff#\LL
.	.	.	.	.	.	.	16b\
8BB/J	.	.	8BB/J	.	.	.	16bb\
.	.	.	.	.	.	.	16b\JJ
8E/L	2r	.	8E/L	.	.	.	16gg\LL
.	.	.	.	.	.	.	16b\
8BB/	.	.	8BB/	.	.	.	16bb\
.	.	.	.	.	.	.	16b\JJ
8E/	.	.	8E/	.	.	.	16gg\LL
.	.	.	.	.	.	.	16b\
8BB/J	.	.	8BB/J	.	.	.	16bb\
.	.	.	.	.	.	.	16b\JJ
=24	=24	=24	=24	=24	=24	=24	=24
8D#/L	2r	1r	8D#/L	1r	1r	1r	16ff#\LL
.	.	.	.	.	.	.	16b\
8BB/	.	.	8BB/	.	.	.	16bb\
.	.	.	.	.	.	.	16b\JJ
8D#/	.	.	8D#/	.	.	.	16ff#\LL
.	.	.	.	.	.	.	16b\
8BB/J	.	.	8BB/J	.	.	.	16bb\
.	.	.	.	.	.	.	16b\JJ
4E\	2r	.	4E\	.	.	.	16gg\LL
.	.	.	.	.	.	.	16ee\
.	.	.	.	.	.	.	16bb\
.	.	.	.	.	.	.	16ee\JJ
4r	.	.	4r	.	.	.	16gg\LL
.	.	.	.	.	.	.	16ee\
.	.	.	.	.	.	.	16bb\
.	.	.	.	.	.	.	16ee\JJ
=25	=25	=25	=25	=25	=25	=25	=25
4E\	2r	1r	4E\	1r	1r	1r	16gg\LL
.	.	.	.	.	.	.	16ee\
.	.	.	.	.	.	.	16eee\
.	.	.	.	.	.	.	16ee\JJ
4r	.	.	4r	.	.	.	16bb\LL
.	.	.	.	.	.	.	16ee\
.	.	.	.	.	.	.	16eee\
.	.	.	.	.	.	.	16ee\JJ
4E\	2r	.	4E\	.	.	.	16gg\LL
.	.	.	.	.	.	.	16ee\
.	.	.	.	.	.	.	16eee\
.	.	.	.	.	.	.	16ee\JJ
4r	.	.	4r	.	.	.	16bb\LL
.	.	.	.	.	.	.	16ee\
.	.	.	.	.	.	.	16eee\
.	.	.	.	.	.	.	16ee\JJ
=26	=26	=26	=26	=26	=26	=26	=26
4A\	2r	1r	4A\	1r	1r	1r	16eee\LL
.	.	.	.	.	.	.	16ccc\
.	.	.	.	.	.	.	16eee\
.	.	.	.	.	.	.	16ccc\JJ
4G\	.	.	4G\	.	.	.	16eee\LL
.	.	.	.	.	.	.	16bb\
.	.	.	.	.	.	.	16eee\
.	.	.	.	.	.	.	16bb\JJ
8F#\L	2r	.	8F#\L	.	.	.	4aa#\
8A#\	.	.	8A#\	.	.	.	.
8F#\	.	.	8F#\	.	.	.	16r
.	.	.	.	.	.	.	16aa#\LL
8A#\J	.	.	8A#\J	.	.	.	16ggn\
.	.	.	.	.	.	.	16ff#\JJ
=27	=27	=27	=27	=27	=27	=27	=27
8F#\L	2r	1r	8F#\L	1r	1r	1r	16ee\LL
.	.	.	.	.	.	.	16aa#\
8A#\	.	.	8A#\	.	.	.	16ggn\
.	.	.	.	.	.	.	16ff#\JJ
8F#\	.	.	8F#\	.	.	.	16ee\LL
.	.	.	.	.	.	.	16aa#\
8A#\J	.	.	8A#\J	.	.	.	16gg\
.	.	.	.	.	.	.	16ff#\JJ
8F#\L	2r	.	8F#\L	.	.	.	16ee\LL
.	.	.	.	.	.	.	16aa#\
8A#\	.	.	8A#\	.	.	.	16gg\
.	.	.	.	.	.	.	16ff#\JJ
8F#\	.	.	8F#\	.	.	.	16ee\LL
.	.	.	.	.	.	.	16gg\
8A#\J	.	.	8A#\J	.	.	.	16ff#\
.	.	.	.	.	.	.	16ee\JJ
=28	=28	=28	=28	=28	=28	=28	=28
8B\L	2r	2r	8B\L	2r	2r	2r	16dd\LL
.	.	.	.	.	.	.	16ddd\
8E\	.	.	8E\	.	.	.	16ccc#\
.	.	.	.	.	.	.	16bb\JJ
8F#\	.	.	8F#\	.	.	.	8.aa#\L
8FF#\J	.	.	8FF#\J	.	.	.	.
.	.	.	.	.	.	.	16bb\Jk
4BB/	2r	4r	4BB/	4r	8r	8r	8bb\L
.	.	.	.	.	8ff#\	8ff#\	8ff#\J
8r	.	8r	8r	8r	[4bb\	[4bb\	[4bb\
8BB/	.	8BB/	8BB/	8dd\	.	.	.
=29	=29	=29	=29	=29	=29	=29	=29
4F#\	2r	4F#\	4F#\	4cc#\	8bb\L]	8bb\L]	8bb\L]
.	.	.	.	.	8ccc#\	8ccc#\	8ccc#\
4FF#/	.	4FF#/	4FF#/	4a#\	8ddd\	8ddd\	8ddd\
.	.	.	.	.	8ccc#\J	8ccc#\J	8ccc#\J
4BB/	2r	4BB/	4BB/	4f#\	4f#\	8bb\L	8bb\L
.	.	.	.	.	.	8f#\J	8f#\J
8r	.	8r	8r	8r	[4b\	[4b\	[4b\
8BB/	.	8BB/	8BB/	8d\	.	.	.
=30	=30	=30	=30	=30	=30	=30	=30
4F#\	2r	4F#\	4F#\	4c#\	8b\L]	8b\L]	8b\L]
.	.	.	.	.	8cc#\	8cc#\	8cc#\
4FF#/	.	4FF#/	4FF#/	4A#/	8dd\	8dd\	8dd\
.	.	.	.	.	8cc#\J	8cc#\J	8cc#\J
4BB/	2r	4BB/	4BB/	4F#/	(8b\L	8b\L	8b\L
.	.	.	.	.	8ff#\J)	8ff#\J	8ff#\J
8r	.	8r	8r	8r	[4bb\	[4bb\	[4bb\
8BB/	.	8BB/	8BB/	8d#\	.	.	.
=31	=31	=31	=31	=31	=31	=31	=31
4C#/	2r	4C#/	4C#/	4e\	8bb\L]	8bb\L]	8bb\L]
.	.	.	.	.	8aa\	8aa\	8aa\
4D#\	.	4D#\	4D#\	4f#\	8b\	8b\	8b\
.	.	.	.	.	8aa\J	8aa\J	8aa\J
4E\	2r	4E\	4E\	4B/	8gg#\L	8gg#\L	8gg#\L
.	.	.	.	.	8b\J	8b\J	8b\J
8r	.	8r	8r	8r	[4ee\	[4ee\	[4ee\
8E\	.	8E\	8E\	8g#\	.	.	.
=32	=32	=32	=32	=32	=32	=32	=32
4F#\	2r	4F#\	4F#\	4a\	8ee/L]	8ee/L]	8ee/L]
.	.	.	.	.	8dd/	8dd/	8dd/
4G#\	.	4G#\	4G#\	4b\	8e/	8e/	8e/
.	.	.	.	.	8dd/J	8dd/J	8dd/J
4A\	2r	4A\	4A\	4e\	8cc#\L	8cc#\L	8cc#\L
.	.	.	.	.	8ee\J	8ee\J	8ee\J
8r	.	8r	8r	8r	[4aa\	[4aa\	[4aa\
8AA/	.	8AA/	8AA/	8c#\	.	.	.
=33	=33	=33	=33	=33	=33	=33	=33
4BB/	2r	4BB/	4BB/	4d\	8aa\L]	8aa\L]	8aa\L]
.	.	.	.	.	8ggn\	8ggn\	8ggn\
4C#/	.	4C#/	4C#/	4e\	8a\	8a\	8a\
.	.	.	.	.	8gg\J	8gg\J	8gg\J
4D\	2r	4D\	4D\	4A/	8ff#\L	8ff#\L	8ff#\L
.	.	.	.	.	8a\J	8a\J	8a\J
8r	.	8r	8r	8r	[4dd\	[4dd\	[4dd\
8D\	.	8D\	8D\	8f#\	.	.	.
=34	=34	=34	=34	=34	=34	=34	=34
4E\	2r	4E\	4E\	4g\	8dd/L]	8dd/L]	8dd/L]
.	.	.	.	.	8cc/	8cc/	8cc/
4F#\	.	4F#\	4F#\	4a\	8d/	8d/	8d/
.	.	.	.	.	8cc/J	8cc/J	8cc/J
4G\	2r	4G\	4G\	4d\	8b\L	8b\L	8b\L
.	.	.	.	.	8dd\J	8dd\J	8dd\J
8r	.	8r	8r	8r	[4gg\	[4gg\	[4gg\
8GG/	.	8GG/	8GG/	8d\	.	.	.
=35	=35	=35	=35	=35	=35	=35	=35
4AA/	2r	4AA/	4AA/	4c\	8gg\L]	8gg\L]	8gg\L]
.	.	.	.	.	8ffn\	8ffn\	8ffn\
4BB/	.	4BB/	4BB/	4d\	8g\	8g\	8g\
.	.	.	.	.	8ff\J	8ff\J	8ff\J
4C/	2r	4C/	4C/	4G/	8ee\L	8ee\L	8ee\L
.	.	.	.	.	8ff#\J	8ff#\J	8ff#\J
8r	.	8r	8r	8r	[4gg\	[4gg\	[4gg\
8BB/	.	8BB/	8BB/	8d\	.	.	.
=36	=36	=36	=36	=36	=36	=36	=36
4C/	2r	4C/	4C/	8e\L	8gg\L]	8gg\L]	8gg\L]
.	.	.	.	8g\	8b\	8b\	8b\
4D\	.	4D\	4D\	8f#\	8a\	8a\	8a\
.	.	.	.	8A\J	8ff#\J	8ff#\J	8ff#\J
8G\L	2r	4G\	8G\L	4B/	4gg\	4gg\	16gg\LL
.	.	.	.	.	.	.	16dd\
8A\	.	.	8A\	.	.	.	16gg\
.	.	.	.	.	.	.	16cc\JJ
8G\	.	4r	8G\	4r	4r	4r	16gg\LL
.	.	.	.	.	.	.	16b\
8F#\J	.	.	8F#\J	.	.	.	16gg\
.	.	.	.	.	.	.	16a\JJ
=37	=37	=37	=37	=37	=37	=37	=37
4G\	2r	1r	4G\	1r	1r	1r	16g/LL
.	.	.	.	.	.	.	16a/
.	.	.	.	.	.	.	16b/
.	.	.	.	.	.	.	16cc/JJ
4r	.	.	4r	.	.	.	16dd\LL
.	.	.	.	.	.	.	16ee\
.	.	.	.	.	.	.	16ff#\
.	.	.	.	.	.	.	16dd\JJ
8G\L	2r	.	8G\L	.	.	.	16gg\LL
.	.	.	.	.	.	.	16dd\
8A\	.	.	8A\	.	.	.	16gg\
.	.	.	.	.	.	.	16cc\JJ
8G\	.	.	8G\	.	.	.	16gg\LL
.	.	.	.	.	.	.	16b\
8F#\J	.	.	8F#\J	.	.	.	16gg\
.	.	.	.	.	.	.	16a\JJ
=38	=38	=38	=38	=38	=38	=38	=38
4G\	2r	1r	4G\	1r	1r	1r	16g/LL
.	.	.	.	.	.	.	16a/
.	.	.	.	.	.	.	16b/
.	.	.	.	.	.	.	16cc/JJ
4r	.	.	4r	.	.	.	16dd\LL
.	.	.	.	.	.	.	16ee\
.	.	.	.	.	.	.	16ff#\
.	.	.	.	.	.	.	16dd\JJ
8G\L	2r	.	8G\L	.	.	.	8gg\L
8A\	.	.	8A\	.	.	.	8g\J
8G\	.	.	8G\	.	.	.	12r
.	.	.	.	.	.	.	12bb\L
8F#\J	.	.	8F#\J	.	.	.	.
.	.	.	.	.	.	.	12ccc\J
=39	=39	=39	=39	=39	=39	=39	=39
4E\	2r	1r	4E\	1r	8e/L	8e/L	12ddd\L
.	.	.	.	.	.	.	24ee\L
.	.	.	.	.	8f#/	8f#/	24ff#\
.	.	.	.	.	.	.	24gg#\
.	.	.	.	.	.	.	24ff#\JJ
4r	.	.	4r	.	8g#/	8g#/	12ee\L
.	.	.	.	.	.	.	24bb\L
.	.	.	.	.	8e/J	8e/J	24ccc\
.	.	.	.	.	.	.	24ddd\
.	.	.	.	.	.	.	24ccc\JJ
2r	2r	.	2r	.	8e/L	8e/L	12bb\L
.	.	.	.	.	.	.	24ee\L
.	.	.	.	.	8f#/	8f#/	24ff#\
.	.	.	.	.	.	.	24gg#\
.	.	.	.	.	.	.	24ff#\JJ
.	.	.	.	.	8g#/	8g#/	12ee\L
.	.	.	.	.	.	.	12bb\
.	.	.	.	.	8e/J	8e/J	.
.	.	.	.	.	.	.	12ddd\J
=40	=40	=40	=40	=40	=40	=40	=40
1r	2r	1r	1r	1r	8A/L	8A/L	12ccc\L
.	.	.	.	.	.	.	24a\L
.	.	.	.	.	8B/	8B/	24b\
.	.	.	.	.	.	.	24cc\
.	.	.	.	.	.	.	24b\JJ
.	.	.	.	.	8c/	8c/	12a\L
.	.	.	.	.	.	.	12aa\
.	.	.	.	.	8A/J	8A/J	.
.	.	.	.	.	.	.	12bb\J
.	2r	.	.	.	8d/L	8d/L	12ccc\L
.	.	.	.	.	.	.	24dd\L
.	.	.	.	.	8e/	8e/	24ee\
.	.	.	.	.	.	.	24ff#\
.	.	.	.	.	.	.	24ee\JJ
.	.	.	.	.	8f#/	8f#/	12dd\L
.	.	.	.	.	.	.	24aa\L
.	.	.	.	.	8d/J	8d/J	24bb\
.	.	.	.	.	.	.	24ccc\
.	.	.	.	.	.	.	24bb\JJ
=41	=41	=41	=41	=41	=41	=41	=41
1r	2r	1r	1r	1r	8d/L	8d/L	12aa\L
.	.	.	.	.	.	.	24dd\L
.	.	.	.	.	8e/	8e/	24ee\
.	.	.	.	.	.	.	24ff#\
.	.	.	.	.	.	.	24ee\JJ
.	.	.	.	.	8f#/	8f#/	12dd\L
.	.	.	.	.	.	.	12aa\
.	.	.	.	.	8d/J	8d/J	.
.	.	.	.	.	.	.	12ccc\J
.	2r	.	.	.	8G/L	8G/L	12bb\L
.	.	.	.	.	.	.	24g\L
.	.	.	.	.	8c/	8A/	24a\
.	.	.	.	.	.	.	24b\
.	.	.	.	.	.	.	24a\JJ
.	.	.	.	.	8B/	8B/	12g\L
.	.	.	.	.	.	.	12gg\
.	.	.	.	.	8G/J	8G/J	.
.	.	.	.	.	.	.	12aa\J
=42	=42	=42	=42	=42	=42	=42	=42
1r	2r	1r	1r	1r	8e/L	8e/L	12bb\L
.	.	.	.	.	.	.	24ee\L
.	.	.	.	.	8f#/	8f#/	24ff#\
.	.	.	.	.	.	.	24gg\
.	.	.	.	.	.	.	24ff#\JJ
.	.	.	.	.	8g/	8g/	12ee\L
.	.	.	.	.	.	.	24gg\L
.	.	.	.	.	8f#/J	8f#/J	24aa\
.	.	.	.	.	.	.	24bb\
.	.	.	.	.	.	.	24aa\JJ
.	2r	.	.	.	8e/L	8e/L	12gg\L
.	.	.	.	.	.	.	24ee\L
.	.	.	.	.	8f#/	8f#/	24ff#\
.	.	.	.	.	.	.	24gg\
.	.	.	.	.	.	.	24ff#\JJ
.	.	.	.	.	8g/	8g/	12ee/L
.	.	.	.	.	.	.	24e/L
.	.	.	.	.	8d#/J	8d#/J	24f#/
.	.	.	.	.	.	.	24g/
.	.	.	.	.	.	.	24f#/JJ
=43	=43	=43	=43	=43	=43	=43	=43
2r	2r	2r	2r	2r	8e/L	8e/L	12e\L
.	.	.	.	.	.	.	24ee\L
.	.	.	.	.	8f#/	8f#/	24ff#\
.	.	.	.	.	.	.	24gg\
.	.	.	.	.	.	.	24aa\JJ
.	.	.	.	.	8g/	8g/	12bb\L
.	.	.	.	.	.	.	12gg\
.	.	.	.	.	8a/J	8a/J	.
.	.	.	.	.	.	.	12ee\J
4r	2r	4r	4r	4r	8B/L	8B/L	8dd#\L
.	.	.	.	.	8b/J	8b/J	8b\J
8r	.	8r	8r	8r	[4ee\	[4ee\	[4ee\
8E\	.	8E\	8E\	8g\	.	.	.
=44	=44	=44	=44	=44	=44	=44	=44
4B\	2r	4B\	4B\	4f#\	8ee\L]	8ee\L]	8ee\L]
.	.	.	.	.	8ff#\	8ff#\	8ff#\
4BB/	.	4BB/	4BB/	4d#\	8gg\	8gg\	8gg\
.	.	.	.	.	8ff#\J	8ff#\J	8ff#\J
4E\	2r	4E\	4E\	4B/	8ee/L	8ee/L	8ee/L
.	.	.	.	.	8B/J	8B/J	8B/J
8r	.	8r	8r	8r	[4e/	[4e/	[4e/
8E\	.	8E\	8E\	8g\	.	.	.
=45	=45	=45	=45	=45	=45	=45	=45
4B\	2r	4B\	4B\	4f#\	8e/L]	8e/L]	8e/L]
.	.	.	.	.	8f#/	8f#/	8f#/
4BB/	.	4BB/	4BB/	4d#\	8g/	8g/	8g/
.	.	.	.	.	8f#/J	8f#/J	8f#/J
4E\	2r	4E\	4E\	4B/	8e/L	8e/L	8e/L
.	.	.	.	.	8b/J	8b/J	8b/J
8r	.	8r	8r	8r	[4ee\	[4ee\	[4ee\
8E\	.	8E\	8E\	8g\	.	.	.
=46	=46	=46	=46	=46	=46	=46	=46
8B\L	2r	8B\L	8B\L	4f#\	8ee\L]	8ee\L]	8ee\L]
8A\	.	8A\	8A\	.	8ff#\	8ff#\	8ff#\
8G\	.	8G\	8G\	8e\L	8gg\	8gg\	8gg\
8F#\J	.	8F#\J	8F#\J	8f#\J	8aa\J	8aa\J	8aa\J
4E\	2r	4E\	4E\	4g\	4bb\	4bb\	4bb\
4F#\	.	4F#\	4F#\	4a\	4dd#\	4dd#\	4dd#\
=47	=47	=47	=47	=47	=47	=47	=47
4G\	2r	4G\	4G\	4b\	4ee\	4ee\	4ee\
4D#\	.	4D#\	4D#\	4f#\	4cc\	4cc\	4cc\
4E\	2r	4E\	4E\	4g\	4b\	4b\	8b\L
.	.	.	.	.	.	.	8bb\
4r	.	4r	4r	4r	4r	4r	8aa\
.	.	.	.	.	.	.	8gg#\J
=48	=48	=48	=48	=48	=48	=48	=48
4E\	2r	1r	4E\	1r	1r	1r	8r
.	.	.	.	.	.	.	8dd\
4r	.	.	4r	.	.	.	8cc#\L
.	.	.	.	.	.	.	8b\J
4AA/	2r	.	4AA/	.	.	.	8cc#\L
.	.	.	.	.	.	.	8aa\
4r	.	.	4r	.	.	.	8ggn\
.	.	.	.	.	.	.	8ff#\J
=49	=49	=49	=49	=49	=49	=49	=49
4D\	2r	1r	4D\	1r	1r	1r	8r
.	.	.	.	.	.	.	8ccn\
4r	.	.	4r	.	.	.	8b/L
.	.	.	.	.	.	.	8a/J
4GG/	2r	.	4GG/	.	.	.	8b\L
.	.	.	.	.	.	.	8gg\
4r	.	.	4r	.	.	.	8ffn\
.	.	.	.	.	.	.	8ee\J
=50	=50	=50	=50	=50	=50	=50	=50
8r	2r	1r	8r	1r	1r	1r	2gg#\
8E\	.	.	8E\	.	.	.	.
4D\	.	.	4D\	.	.	.	.
4C/	2r	.	4C/	.	.	.	8aa\L
.	.	.	.	.	.	.	8ggn\
4r	.	.	4r	.	.	.	8ffn\
.	.	.	.	.	.	.	8ee\J
=51	=51	=51	=51	=51	=51	=51	=51
8r	2r	1r	8r	1r	1r	1r	2aa#\
8F#\	.	.	8F#\	.	.	.	.
4E\	.	.	4E\	.	.	.	.
4D\	2r	.	4D\	.	.	.	8bb\L
.	.	.	.	.	.	.	8gg\
4r	.	.	4r	.	.	.	8ffn\
.	.	.	.	.	.	.	8ee\J
=52	=52	=52	=52	=52	=52	=52	=52
8r	2r	1r	8r	1r	1r	1r	2bb\
8e\	.	.	8e\	.	.	.	.
4E\	.	.	4E\	.	.	.	.
4AA/	2r	.	4AA/	.	.	.	8ccc\L
.	.	.	.	.	.	.	8gg\
4r	.	.	4r	.	.	.	8ff#\
.	.	.	.	.	.	.	8ee\J
=53	=53	=53	=53	=53	=53	=53	=53
8r	2r	1r	8r	1r	1r	1r	2ddd#\
8B\	.	.	8B\	.	.	.	.
4A\	.	.	4A\	.	.	.	.
4G\	2r	.	4G\	.	.	.	16eee\LL
.	.	.	.	.	.	.	16gg\
.	.	.	.	.	.	.	16b\
.	.	.	.	.	.	.	16gg\JJ
4G\	.	.	4G\	.	.	.	16eee\LL
.	.	.	.	.	.	.	16gg\
.	.	.	.	.	.	.	16b\
.	.	.	.	.	.	.	16gg\JJ
=54	=54	=54	=54	=54	=54	=54	=54
4G\	2r	1r	4G\	1r	1r	1r	16eee\LL
.	.	.	.	.	.	.	16gg\
.	.	.	.	.	.	.	16b\
.	.	.	.	.	.	.	16gg\JJ
4G\	.	.	4G\	.	.	.	16eee\LL
.	.	.	.	.	.	.	16gg\
.	.	.	.	.	.	.	16b\
.	.	.	.	.	.	.	16gg\JJ
4C/	2r	.	4C/	.	.	.	16aa\LL
.	.	.	.	.	.	.	16cc\
.	.	.	.	.	.	.	16e\
.	.	.	.	.	.	.	16cc\JJ
4C/	.	.	4C/	.	.	.	16aa\LL
.	.	.	.	.	.	.	16cc\
.	.	.	.	.	.	.	16e\
.	.	.	.	.	.	.	16cc\JJ
=55	=55	=55	=55	=55	=55	=55	=55
4C/	2r	1r	4C/	1r	1r	1r	16aa\LL
.	.	.	.	.	.	.	16cc\
.	.	.	.	.	.	.	16e\
.	.	.	.	.	.	.	16cc\JJ
4C/	.	.	4C/	.	.	.	16aa\LL
.	.	.	.	.	.	.	16cc\
.	.	.	.	.	.	.	16e\
.	.	.	.	.	.	.	16cc\JJ
4AA#/	2r	.	4AA#/	.	.	.	16fff#\LL
.	.	.	.	.	.	.	16aa#\
.	.	.	.	.	.	.	16cc#\
.	.	.	.	.	.	.	16aa#\JJ
4AA#/	.	.	4AA#/	.	.	.	16fff#\LL
.	.	.	.	.	.	.	16aa#\
.	.	.	.	.	.	.	16cc#\
.	.	.	.	.	.	.	16aa#\JJ
=56	=56	=56	=56	=56	=56	=56	=56
4FF#/	2r	1r	4FF#/	1r	1r	1r	16fff#\LL
.	.	.	.	.	.	.	16aa#\
.	.	.	.	.	.	.	16cc#\
.	.	.	.	.	.	.	16aa#\JJ
4FF#/	.	.	4FF#/	.	.	.	16fff#\LL
.	.	.	.	.	.	.	16aa#\
.	.	.	.	.	.	.	16cc#\
.	.	.	.	.	.	.	16aa#\JJ
4D#\	2r	.	4D#\	.	.	.	16bb\LL
.	.	.	.	.	.	.	16ff#\
.	.	.	.	.	.	.	16f#\
.	.	.	.	.	.	.	16dd#\JJ
4D#\	.	.	4D#\	.	.	.	16bb\LL
.	.	.	.	.	.	.	16dd#\
.	.	.	.	.	.	.	16f#\
.	.	.	.	.	.	.	16dd#\JJ
=57	=57	=57	=57	=57	=57	=57	=57
4BB/	2r	1r	4BB/	1r	1r	1r	16bb\LL
.	.	.	.	.	.	.	16dd#\
.	.	.	.	.	.	.	16f#\
.	.	.	.	.	.	.	16dd#\JJ
4BB/	.	.	4BB/	.	.	.	16bb\LL
.	.	.	.	.	.	.	16dd#\
.	.	.	.	.	.	.	16f#\
.	.	.	.	.	.	.	16dd#\JJ
4B\	2r	.	4B\	.	.	.	16ggg\LL
.	.	.	.	.	.	.	16bb\
.	.	.	.	.	.	.	16ddn\
.	.	.	.	.	.	.	16bb\JJ
4B\	.	.	4B\	.	.	.	16ggg\LL
.	.	.	.	.	.	.	16bb\
.	.	.	.	.	.	.	16dd\
.	.	.	.	.	.	.	16bb\JJ
=58	=58	=58	=58	=58	=58	=58	=58
4G\	2r	1r	4G\	1r	1r	1r	16ggg\LL
.	.	.	.	.	.	.	16bb\
.	.	.	.	.	.	.	16dd\
.	.	.	.	.	.	.	16bb\JJ
4G\	.	.	4G\	.	.	.	16ggg\LL
.	.	.	.	.	.	.	16bb\
.	.	.	.	.	.	.	16dd\
.	.	.	.	.	.	.	16bb\JJ
4E\	2r	.	4E\	.	.	.	16ccc\LL
.	.	.	.	.	.	.	16ee\
.	.	.	.	.	.	.	16g\
.	.	.	.	.	.	.	16ee\JJ
4E\	.	.	4E\	.	.	.	16ccc\LL
.	.	.	.	.	.	.	16ee\
.	.	.	.	.	.	.	16g\
.	.	.	.	.	.	.	16ee\JJ
=59	=59	=59	=59	=59	=59	=59	=59
4C/	2r	1r	4C/	1r	1r	1r	16ccc\LL
.	.	.	.	.	.	.	16ee\
.	.	.	.	.	.	.	16g\
.	.	.	.	.	.	.	16ee\JJ
4C/	.	.	4C/	.	.	.	16ccc\LL
.	.	.	.	.	.	.	16ee\
.	.	.	.	.	.	.	16g\
.	.	.	.	.	.	.	16ee\JJ
4c#\	2r	.	4c#\	.	.	.	16aaa\LL
.	.	.	.	.	.	.	16ccc#\
.	.	.	.	.	.	.	16ee\
.	.	.	.	.	.	.	16ccc#\JJ
4c#\	.	.	4c#\	.	.	.	16aaa\LL
.	.	.	.	.	.	.	16ccc#\
.	.	.	.	.	.	.	16ee\
.	.	.	.	.	.	.	16ccc#\JJ
=60	=60	=60	=60	=60	=60	=60	=60
4A\	2r	1r	4A\	1r	1r	1r	16aaa\LL
.	.	.	.	.	.	.	16ccc#\
.	.	.	.	.	.	.	16ee\
.	.	.	.	.	.	.	16ccc#\JJ
4A\	.	.	4A\	.	.	.	16aaa\LL
.	.	.	.	.	.	.	16ccc#\
.	.	.	.	.	.	.	16ee\
.	.	.	.	.	.	.	16ccc#\JJ
4F#\	2r	.	4F#\	.	.	.	16ddd\LL
.	.	.	.	.	.	.	16ff#\
.	.	.	.	.	.	.	16a\
.	.	.	.	.	.	.	16ff#\JJ
4F#\	.	.	4F#\	.	.	.	16ddd\LL
.	.	.	.	.	.	.	16ff#\
.	.	.	.	.	.	.	16a\
.	.	.	.	.	.	.	16ff#\JJ
=61	=61	=61	=61	=61	=61	=61	=61
4D\	2r	1r	4D\	1r	1r	1r	16ddd\LL
.	.	.	.	.	.	.	16ff#\
.	.	.	.	.	.	.	16a\
.	.	.	.	.	.	.	16ff#\JJ
4D\	.	.	4D\	.	.	.	16ddd\LL
.	.	.	.	.	.	.	16ff#\
.	.	.	.	.	.	.	16a\
.	.	.	.	.	.	.	16ff#\JJ
4d#\	2r	.	4d#\	.	.	.	16bbb\LL
.	.	.	.	.	.	.	16ddd#\
.	.	.	.	.	.	.	16ff#\
.	.	.	.	.	.	.	16ddd#\JJ
4d#\	.	.	4d#\	.	.	.	16bbb\LL
.	.	.	.	.	.	.	16ddd#\
.	.	.	.	.	.	.	16ff#\
.	.	.	.	.	.	.	16ddd#\JJ
=62	=62	=62	=62	=62	=62	=62	=62
4B\	2r	1r	4B\	1r	1r	1r	16bbb\LL
.	.	.	.	.	.	.	16ddd#\
.	.	.	.	.	.	.	16ff#\
.	.	.	.	.	.	.	16ddd#\JJ
4B\	.	.	4B\	.	.	.	16bbb\LL
.	.	.	.	.	.	.	16ddd#\
.	.	.	.	.	.	.	16ff#\
.	.	.	.	.	.	.	16ddd#\JJ
4E\	2r	.	4E\	.	.	.	16ggg\LL
.	.	.	.	.	.	.	16bb\
.	.	.	.	.	.	.	16ee\
.	.	.	.	.	.	.	16bb\JJ
4E\	.	.	4E\	.	.	.	16ggg\LL
.	.	.	.	.	.	.	16bb\
.	.	.	.	.	.	.	16ee\
.	.	.	.	.	.	.	16bb\JJ
=63	=63	=63	=63	=63	=63	=63	=63
4AA/	2r	1r	4AA/	1r	1r	1r	16aaa\LL
.	.	.	.	.	.	.	16cccn\
.	.	.	.	.	.	.	16ee\
.	.	.	.	.	.	.	16ccc\JJ
4AA/	.	.	4AA/	.	.	.	16aaa\LL
.	.	.	.	.	.	.	16ccc\
.	.	.	.	.	.	.	16ee\
.	.	.	.	.	.	.	16ccc\JJ
4E\	2r	.	4E\	.	.	.	16ggg\LL
.	.	.	.	.	.	.	16bb\
.	.	.	.	.	.	.	16ee\
.	.	.	.	.	.	.	16bb\JJ
4E\	.	.	4E\	.	.	.	16ggg\LL
.	.	.	.	.	.	.	16bb\
.	.	.	.	.	.	.	16ee\
.	.	.	.	.	.	.	16bb\JJ
=64	=64	=64	=64	=64	=64	=64	=64
4AA/	2r	1r	4AA/	1r	1r	1r	16aaa\LL
.	.	.	.	.	.	.	16ccc\
.	.	.	.	.	.	.	16ee\
.	.	.	.	.	.	.	16ccc\JJ
4AA/	.	.	4AA/	.	.	.	16aaa\LL
.	.	.	.	.	.	.	16ccc\
.	.	.	.	.	.	.	16ee\
.	.	.	.	.	.	.	16ccc\JJ
4BB/	2r	.	4BB/	.	.	.	16aaa\LL
.	.	.	.	.	.	.	16ccc\
.	.	.	.	.	.	.	16dd#\
.	.	.	.	.	.	.	16ccc\JJ
4BB/	.	.	4BB/	.	.	.	16aaa\LL
.	.	.	.	.	.	.	16ccc\
.	.	.	.	.	.	.	16dd#\
.	.	.	.	.	.	.	16ccc\JJ
=65	=65	=65	=65	=65	=65	=65	=65
4BB/	2r	1r	4BB/	1r	1r	1r	16aaa\LL
.	.	.	.	.	.	.	16bb\
.	.	.	.	.	.	.	16dd#\
.	.	.	.	.	.	.	16bb\JJ
4BB/	.	.	4BB/	.	.	.	16aaa\LL
.	.	.	.	.	.	.	16bb\
.	.	.	.	.	.	.	16dd#\
.	.	.	.	.	.	.	16bb\JJ
4E\	2r	.	4E\	.	.	.	16ggg\LL
.	.	.	.	.	.	.	16bb\
.	.	.	.	.	.	.	16ee\
.	.	.	.	.	.	.	16bb\JJ
4E\	.	.	4E\	.	.	.	16ggg\LL
.	.	.	.	.	.	.	16bb\
.	.	.	.	.	.	.	16ee\
.	.	.	.	.	.	.	16bb\JJ
=66	=66	=66	=66	=66	=66	=66	=66
4A\	2r	1r	4A\	1r	1r	1r	16ggg\LL
.	.	.	.	.	.	.	16aa\
.	.	.	.	.	.	.	16cc\
.	.	.	.	.	.	.	16aa\JJ
4A\	.	.	4A\	.	.	.	16ggg\LL
.	.	.	.	.	.	.	16aa\
.	.	.	.	.	.	.	16cc\
.	.	.	.	.	.	.	16aa\JJ
4d\	2r	.	4d\	.	.	.	16fff#\LL
.	.	.	.	.	.	.	16aa\
.	.	.	.	.	.	.	16dd\
.	.	.	.	.	.	.	16aa\JJ
4d\	.	.	4d\	.	.	.	16fff#\LL
.	.	.	.	.	.	.	16aa\
.	.	.	.	.	.	.	16dd\
.	.	.	.	.	.	.	16aa\JJ
=67	=67	=67	=67	=67	=67	=67	=67
4G\	2r	1r	4G\	1r	1r	1r	16fff#\LL
.	.	.	.	.	.	.	16gg\
.	.	.	.	.	.	.	16b\
.	.	.	.	.	.	.	16gg\JJ
4G\	.	.	4G\	.	.	.	16fff#\LL
.	.	.	.	.	.	.	16gg\
.	.	.	.	.	.	.	16b\
.	.	.	.	.	.	.	16gg\JJ
4c\	2r	.	4c\	.	.	.	16eee\LL
.	.	.	.	.	.	.	16gg\
.	.	.	.	.	.	.	16cc\
.	.	.	.	.	.	.	16gg\JJ
4c\	.	.	4c\	.	.	.	16eee\LL
.	.	.	.	.	.	.	16gg\
.	.	.	.	.	.	.	16cc\
.	.	.	.	.	.	.	16gg\JJ
=68	=68	=68	=68	=68	=68	=68	=68
4F#\	2r	1r	4F#\	1r	1r	1r	16eee\LL
.	.	.	.	.	.	.	16ff#\
.	.	.	.	.	.	.	16a#\
.	.	.	.	.	.	.	16ff#\JJ
4F#\	.	.	4F#\	.	.	.	16eee\LL
.	.	.	.	.	.	.	16ff#\
.	.	.	.	.	.	.	16a#\
.	.	.	.	.	.	.	16ff#\JJ
4B\	2r	.	4B\	.	.	.	16ddd\LL
.	.	.	.	.	.	.	16ff#\
.	.	.	.	.	.	.	16b\
.	.	.	.	.	.	.	16ff#\JJ
4B\	.	.	4B\	.	.	.	16ddd\LL
.	.	.	.	.	.	.	16ff#\
.	.	.	.	.	.	.	16b\
.	.	.	.	.	.	.	16ff#\JJ
=69	=69	=69	=69	=69	=69	=69	=69
4E\	2r	1r	4E\	1r	1r	1r	16ddd\LL
.	.	.	.	.	.	.	16ee\
.	.	.	.	.	.	.	16g#\
.	.	.	.	.	.	.	16ee\JJ
4E\	.	.	4E\	.	.	.	16ddd\LL
.	.	.	.	.	.	.	16ee\
.	.	.	.	.	.	.	16g#\
.	.	.	.	.	.	.	16ee\JJ
4A\	2r	.	4A\	.	.	.	16ccc\LL
.	.	.	.	.	.	.	16ee\
.	.	.	.	.	.	.	16a\
.	.	.	.	.	.	.	16ee\JJ
4A\	.	.	4A\	.	.	.	16ccc\LL
.	.	.	.	.	.	.	16ee\
.	.	.	.	.	.	.	16a\
.	.	.	.	.	.	.	16ee\JJ
=70	=70	=70	=70	=70	=70	=70	=70
4D\	2r	1r	4D\	1r	1r	1r	16ccc\LL
.	.	.	.	.	.	.	16dd\
.	.	.	.	.	.	.	16f#\
.	.	.	.	.	.	.	16dd\JJ
4D\	.	.	4D\	.	.	.	16ccc\LL
.	.	.	.	.	.	.	16dd\
.	.	.	.	.	.	.	16f#\
.	.	.	.	.	.	.	16dd\JJ
4G\	2r	.	4G\	.	.	.	16bb\LL
.	.	.	.	.	.	.	16dd\
.	.	.	.	.	.	.	16g\
.	.	.	.	.	.	.	16dd\JJ
4G\	.	.	4G\	.	.	.	16bb\LL
.	.	.	.	.	.	.	16dd\
.	.	.	.	.	.	.	16g\
.	.	.	.	.	.	.	16dd\JJ
=71	=71	=71	=71	=71	=71	=71	=71
4C/	2r	1r	4C/	1r	1r	1r	16bb\LL
.	.	.	.	.	.	.	16cc\
.	.	.	.	.	.	.	16e\
.	.	.	.	.	.	.	16cc\JJ
4C/	.	.	4C/	.	.	.	16bb\LL
.	.	.	.	.	.	.	16cc\
.	.	.	.	.	.	.	16e\
.	.	.	.	.	.	.	16cc\JJ
4c\	2r	.	4c\	.	.	.	16aa\LL
.	.	.	.	.	.	.	16cc\
.	.	.	.	.	.	.	16e\
.	.	.	.	.	.	.	16cc\JJ
4c\	.	.	4c\	.	.	.	16aa\LL
.	.	.	.	.	.	.	16cc\
.	.	.	.	.	.	.	16e\
.	.	.	.	.	.	.	16cc\JJ
=72	=72	=72	=72	=72	=72	=72	=72
4B\	2r	1r	4B\	1r	1r	1r	16aa\LL
.	.	.	.	.	.	.	16dd#\
.	.	.	.	.	.	.	16f#\
.	.	.	.	.	.	.	16dd#\JJ
4B\	.	.	4B\	.	.	.	16aa\LL
.	.	.	.	.	.	.	16dd#\
.	.	.	.	.	.	.	16f#\
.	.	.	.	.	.	.	16dd#\JJ
4BB/	2r	.	4BB/	.	.	.	16aa\LL
.	.	.	.	.	.	.	16dd#\
.	.	.	.	.	.	.	16f#\
.	.	.	.	.	.	.	16dd#\JJ
4BB/	.	.	4BB/	.	.	.	16aa\LL
.	.	.	.	.	.	.	16dd#\
.	.	.	.	.	.	.	16f#\
.	.	.	.	.	.	.	16dd#\JJ
=73	=73	=73	=73	=73	=73	=73	=73
*	*	*	*	*	*	*	*^
8E\L	2r	1r	8E\L	1r	1r	1r	4gg/	8e\ 8b\
8e\	.	.	8e\	.	.	.	.	8r
8B\	.	.	8B\	.	.	.	4r	4r
8G\J	.	.	8G\J	.	.	.	.	.
4E\	2r	.	4E\	.	.	.	16r	2r
.	.	.	.	.	.	.	16e/LL	.
.	.	.	.	.	.	.	16f#/	.
.	.	.	.	.	.	.	16g/JJ	.
4r	.	.	4r	.	.	.	16a/LL	.
.	.	.	.	.	.	.	16b/	.
.	.	.	.	.	.	.	16cc#/	.
.	.	.	.	.	.	.	16dd#/JJ	.
*	*	*	*	*	*	*	*v	*v
=74	=74	=74	=74	=74	=74	=74	=74
4E\	2r	1r	4E\	1r	1r	1r	16ee\LL
.	.	.	.	.	.	.	16b\
.	.	.	.	.	.	.	16cc#\
.	.	.	.	.	.	.	16dd#\JJ
4r	.	.	4r	.	.	.	16ee\LL
.	.	.	.	.	.	.	16ff#\
.	.	.	.	.	.	.	16gg\
.	.	.	.	.	.	.	16aa\JJ
4E\	2r	.	4E\	.	.	.	16bb\LL
.	.	.	.	.	.	.	16ee\
.	.	.	.	.	.	.	16ff#\
.	.	.	.	.	.	.	16gg\JJ
4r	.	.	4r	.	.	.	16aa\LL
.	.	.	.	.	.	.	16bb\
.	.	.	.	.	.	.	16ccc#\
.	.	.	.	.	.	.	16ddd#\JJ
=75	=75	=75	=75	=75	=75	=75	=75
4E\	2r	2r	4E\	2r	2r	2r	8eee\L
.	.	.	.	.	.	.	8ee\J
8B\L	.	.	8B\L	.	.	.	4ff#\
8BB\J	.	.	8BB\J	.	.	.	.
4E\	2r	4r	4E\	4r	8r	8r	8ee\L
.	.	.	.	.	8bb\	8bb\	8bb\J
8r	.	8r	8r	8r	[4gg#\	[4gg#\	[4gg#\
8e\	.	8e\	8e\	8b\	.	.	.
=76	=76	=76	=76	=76	=76	=76	=76
4.E\	2r	4.E\	4.E\	4.b\	8gg#\L]	8gg#\L]	8gg#\L]
.	.	.	.	.	8dd\	8dd\	8dd\
.	.	.	.	.	8ee\	8ee\	8ee\
8G#\	.	8G#\	8G#\	8e\	8b\J	8b\J	8b\J
4A\	2r	4A\	4A\	4e\	8cc#\L	8cc#\L	8cc#\L
.	.	.	.	.	8aa\J	8aa\J	8aa\J
8r	.	8r	8r	8r	[4ff#\	[4ff#\	[4ff#\
8d\	.	8d\	8d\	8f#\	.	.	.
=77	=77	=77	=77	=77	=77	=77	=77
4.D\	2r	4.D\	4.D\	4.a\	8ff#\L]	8ff#\L]	8ff#\L]
.	.	.	.	.	8cc\	8cc\	8cc\
.	.	.	.	.	8dd\	8dd\	8dd\
8F#\	.	8F#\	8F#\	8d\	8a\J	8a\J	8a\J
4G\	2r	4G\	4G\	4d\	8b\L	8b\L	8b\L
.	.	.	.	.	8gg\J	8gg\J	8gg\J
8r	.	8r	8r	8r	[4ee\	[4ee\	[4ee\
8c\	.	8c\	8c\	8e\	.	.	.
=78	=78	=78	=78	=78	=78	=78	=78
4.C/	2r	4.C/	4.C/	4g\	8ee\L]	8ee\L]	8ee\L]
.	.	.	.	.	8b\	8b\	8b\
.	.	.	.	8r	8cc\	8cc\	8cc\
8E\	.	8E\	8E\	8c\	8g\J	8g\J	8g\J
4F#\	2r	4F#\	4F#\	4c\	8a\L	8a\L	8a\L
.	.	.	.	.	8ff#\J	8ff#\J	8ff#\J
8r	.	8r	8r	8r	[4dd#\	[4dd#\	[4dd#\
.	.	.	.	eq/	.	.	.
8B\	.	8B\	8B\	8d#\	.	.	.
=79	=79	=79	=79	=79	=79	=79	=79
4.BB/	2r	4.BB/	4.BB/	4.f#\	8dd#/L]	8dd#/L]	8dd#/L]
.	.	.	.	.	8a/	8a/	8a/
.	.	.	.	.	8b/	8b/	8b/
8D#\	.	8D#\	8D#\	8B/	8f#/J	8f#/J	8f#/J
4E\	2r	4E\	4E\	4B/	8g/L	8g/L	8g/L
.	.	.	.	.	8b/J	8b/J	8b/J
8r	.	8r	8r	8r	[4ee\	[4ee\	[4ee\
8E\	.	8E\	8E\	8g\	.	.	.
=80	=80	=80	=80	=80	=80	=80	=80
4G\	2r	4G\	4G\	4b\	8ee\L]	8ee\L]	8ee\L]
.	.	.	.	.	8ff#\	8ff#\	8ff#\
4E\	.	4E\	4E\	4g\	8gg\	8gg\	8gg\
.	.	.	.	.	8ee\J	8ee\J	8ee\J
4.A\	2r	4.A\	4.A\	4.cc\	8ffn\L	8ffn\L	8ffn\L
.	.	.	.	.	8cc\J	8cc\J	8cc\J
.	.	.	.	.	[4ff\	[4ff\	[4ff\
8A\	.	8A\	8A\	8cc\	.	.	.
=81	=81	=81	=81	=81	=81	=81	=81
8A\L	2r	8A\L	8A\L	8cc\L	8ff\L]	8ff\L]	8ff\L]
8G\	.	8G\	8G\	8b\	8gg\	8gg\	8gg\
8Fn\	.	8Fn\	8Fn\	8a\	8aa\	8aa\	8aa\
8E\J	.	8E\J	8E\J	8g\J	8bb\J	8bb\J	8bb\J
4BB/	2r	4BB/	4BB/	4f#\	8dd#\L	8dd#\L	8dd#\L
.	.	.	.	.	8b\J	8b\J	8b\J
8r	.	8r	8r	8r	[4bb\	[4bb\	[4bb\
8B\	.	8B\	8B\	8d#\	.	.	.
=82	=82	=82	=82	=82	=82	=82	=82
4.c#\	2r	4.c#\	4.c#\	4.e\	8bb\L]	8bb\L]	8bb\L]
.	.	.	.	.	8b\J	8b\J	8b\J
.	.	.	.	.	[4aa\	[4aa\	[4aa\
8d#\	.	8d#\	8d#\	8f#\	.	.	.
4.e\	2r	4.e\	4.e\	4.b\	8aa\L]	8aa\L]	8aa\L]
.	.	.	.	.	8b\J	8b\J	8b\J
.	.	.	.	.	4gg#\	4gg#\	4gg#\
8dn\	.	8dn\	8dn\	8b\	.	.	.
=83	=83	=83	=83	=83	=83	=83	=83
8c\L	2r	8c\L	8c\L	8e\L	8aa\L	8aa\L	8aa\L
16B\L	.	16B\L	16B\L	8f#\	8dd#\J	8dd#\J	8dd#\J
16A\JJ	.	16A\JJ	16A\JJ	.	.	.	.
8G\L	.	8G\L	8G\L	8g\	[4ee\	[4ee\	[4ee\
8E\J	.	8E\J	8E\J	8g\J	.	.	.
4AA/	2r	4AA/	4AA/	8c\L	8ee/L]	8ee/L]	8ee/L]
.	.	.	.	8e\	8f#/	8f#/	8f#/
4BB/	.	4BB/	4BB/	8d#\	8B/	8B/	8B/
.	.	.	.	8f#\J	8dd#/J	8dd#/J	8dd#/J
=84	=84	=84	=84	=84	=84	=84	=84
4EE;/	2r	4EE;/	4EE;/	4g;\	4ee;\	4ee;\	4ee;\
4r	.	4r	4r	4r	4r	4r	4r
2r	2r	2r	2r	2r	2r	2r	2r
==	==	==	==	==	==	==	==
*-	*-	*-	*-	*-	*-	*-	*-
!!!ENC: Don Anthony
!!!END: 2005/06/10/
!!!ONB: Converted to Humdrum by Craig Sapp 2005/06/24/
